web/wp-content/themes/cncf-twenty-two/images/reports/kccnc-na-22/icon-users.svg

<svg fill="none" height="23" viewBox="0 0 20 23" width="20" xmlns="http://www.w3.org/2000/svg"><g stroke="#1e1d40" stroke-linecap="round" stroke-linejoin="round" stroke-width="2"><path d="m18.7766 21.0021v-2.222c0-1.1787-.4683-2.3091-1.3017-3.1425s-1.9638-1.3017-3.1425-1.3017h-8.88826c-1.17866 0-2.30904.4683-3.14248 1.3017s-1.30166 1.9638-1.30166 3.1425v2.222"/><path d="m9.88847 9.89023c2.45443 0 4.44413-1.98971 4.44413-4.44414s-1.9897-4.44414-4.44413-4.44414-4.44413 1.98971-4.44413 4.44414 1.9897 4.44414 4.44413 4.44414z"/></g></svg>

<svg width="20" height="23" viewBox="0 0 20 23" fill="none" xmlns="http://www.w3.org/2000/svg">
<path d="M18.7766 21.0021V18.7801C18.7766 17.6014 18.3083 16.471 17.4749 15.6376C16.6415 14.8042 15.5111 14.3359 14.3324 14.3359H5.44414C4.26548 14.3359 3.1351 14.8042 2.30166 15.6376C1.46822 16.471 1 17.6014 1 18.7801V21.0021" stroke="#1E1D40" stroke-width="2" stroke-linecap="round" stroke-linejoin="round"/>
<path d="M9.88847 9.89023C12.3429 9.89023 14.3326 7.90052 14.3326 5.44609C14.3326 2.99166 12.3429 1.00195 9.88847 1.00195C7.43404 1.00195 5.44434 2.99166 5.44434 5.44609C5.44434 7.90052 7.43404 9.89023 9.88847 9.89023Z" stroke="#1E1D40" stroke-width="2" stroke-linecap="round" stroke-linejoin="round"/>
</svg>
